!!!OTL: Wiegenlied.
!!!OTL-incipit:ALLES STILL IN SUESSER RUH
!!!COM: K. v. Winterfeld
!!!ARE: Europa, Mitteleuropa, Deutschland
!!!SCT: F0354
!!!TXL: @@DE
!!!YEM: Copyright 1995, estate of Helmut Schaffrath.
**kern	**text
*ICvox	*
*M3/4	*
*k[f#c#g#d#]	*
*E:	*
=1	=1
!LO:TX:a:t=Mäßig.	!
{(4b/	1._Al-
4g#)	.
4a	-les
=2	=2
2b/	ſtill
4g#	in
=3	=3
2a	ſü-
4f#	-ßer
=4	=4
2.g#}	Ruh',
=5	=5
{(4ee	drum,
4dd#)	.
4cc#	mein
=6	=6
2b	Kind
4cc#	ſo
=7	=7
2a	ſchlaf'
4b/	auch
=8	=8
2.g#}	du!
=9	=9
{2g#	Drau-
4g#	-ßen
=10	=10
2cc#	ſäu-
4cc#	-ſelt
=11	=11
(4dd#	nur
4cc#)	.
4dd#	der
=12	=12
2.ee}	Wind
=13	=13
{(4ee	Su-
4g#)	.
4a#	-ſu-
=14	=14
2b/	-ſu!
4g#	ſchlaf'
=15	=15
(4an	ein,
4g#)	.
4f#	mein
=16	=16
2e	Kind!
4r}	.
==	==
!!!AGN: Jugend - Lied, Wiegen - Lied
!!!ONB: ESAC (Essen Associative Code) Database: FINK
!!!AMT: simple triple
!!!AIN: vox
!!!EED: Helmut Schaffrath
!!!EEV: 1.0
!!Text: H. v. Fallersleben
!!!GTL: Jugendlieder
!!!source: Musikalischer Hausschatz der Deutschen. Eine Sammlung von über 1000 Liedern und Gesängen mit Singstimmen und Klavierbegleitung. Leipzig, Litterarisches Verlags-Haus.
!!!page: 210
!!!ENC: Anna Maria Matuszewska
!!!EEV: 2025/03/14
*-	*-
